X:1
T:7 Lieder, Op.48
T:Der Überläufer
T:2. Der Überläufer
T:Johannes Brahms
T:Aus des Knaben Wunderhorn
T:7 Lieder, Op.48
T:OpenScore (CC0)
C:Johannes Brahms
Z:Traditional ("Aus des Knaben Wunderhorn")
Z:OpenScore (CC0)
%%score ( 1 2 ) { ( 3 5 ) | 4 }
L:1/8
Q:1/4=92
M:2/4
K:A
V:1 treble nm="Singstimme\nVoice"
V:2 treble 
V:3 treble nm="Pianoforte"
V:5 treble 
V:4 bass 
V:1
"^Andante con moto" A2 A2 | B2 G2 | F2 E E | C2 C2 | E2 E2 | F2 D2 | C2 B,2 | C2 C2 | d2 c B | %9
w: 1. In den|Gar- ten|wol- len wir|ge- hen,|wo die|schö- nen|Ro- sen|ste- hen,|Da stehn  der|
w: |||||||||
 (A>B) c2 | B2 G2 | F4 | G2 G G | A2 E2 | G2 G2 | A4 | z4 | z2!p! F2 |: A2 A A | B2 G G | F2 E2 | %21
w: Ro- * sen|gar zu|viel,|brech ich mir|ei- ne,|wo ich|will.||2. Wir|ha- ben gar|öf- ters bei-|samm'n ge-|
w: |||||||||3. Hört ihr *|nicht den *|Jä- ger|
 C2 C C | E2 E E | F2 D2 | C2 B,2 | C2 C2 | d2 c B | (A>B) c3/2 c/ | B2 G2 | F4 | G2 G2 | A2 E2 | %32
w: ses- sen,  wie|ist mir mein|Schatz so|treu ge-|we- sen!|Das hätt ich|mir * nicht  ge-|bil- det|ein,|dass mein|Schatz so|
w: bla- sen *|in dem *|Wald auf|grü- nem|Ra- sen,|den Jä- ger|mit * dem *|grü- nen|Hut,|der *|Schatz ver-|
 G2 G2 | A4 | z4 |1 z4 :|2[Q:1/4=80] F4 | F4 |] %38
w: falsch  könnt|sein.|||||
w: füh- ren|tut,|||3. mein'n|Schatz.|
V:2
 x4 | x4 | x4 | x4 | x4 | x4 | x4 | x4 | x4 | x4 | x4 | x4 | x4 | x4 | x4 | x4 | x4 | x4 |: x2 A2 | %19
w: |||||||||||||||||||
w: |||||||||||||||||||
 x2 G2 | x4 | x2 C2 | x2 E2 | x4 | x4 | x4 | x4 | x2 c2 | x4 | x4 | x2 G G | x4 | x4 | x4 | x4 |1 %35
w: ||||||||||||||||
w: |||||||||||mei- nen|||||
 x4 :|2 x4 | x4 |] %38
w: |||
w: |||
V:3
!p! (([CFA]2 [CFA]2 | [DFB]2 [B,FG]2 | [A,CF]2 [B,E]2 | [A,C]4)) | ([EAc]2 [EAc]2 | [FAd]2 [DAB]2 | %6
 [CEA]2 [B,DF]2 | [CFA]4) | ([df]2 [ce][Bd] | [Ac]>[Bd] [ce]2) | ([Bd]2 [GB]2 | A4) | %12
 [DGB]2 [DGB]2 | [EAc]2 [CE]2 | [B,FG]2 [B,FG]2 | [CFA]4- | [CFA]4 |!>(! [B,DF]4!>)! |: %18
!p! (([CFA]2 [CFA]2 | [DFB]2 [B,FG]2 | [A,CF]2 [B,E]2 | [A,C]4)) | ([EAc]2 [EAc]2 | [FAd]2 [DAB]2 | %24
 [CEA]2 [B,DF]2 | [CFA]4) | [df]2 [ce][Bd] | [Ac]>[Bd] [ce]2 | ([Bd]2 [GB]2 | A4) | [DGB]2 [DGB]2 | %31
 [EAc]2 [CE]2 | [B,FG]2 [B,FG]2 | [CFA]4- | [CFA]4 |1!>(! [B,DF]4!>)! :|2!p!!>(! [B,DF]4!>)! | %37
!pp! [A,CF]4 |] %38
V:4
 [F,,,F,,]4- | [F,,,F,,]4- | [F,,,F,,]2 [G,,,G,,]2 | [A,,,A,,]4- | [A,,,A,,]4- | [A,,,A,,]4- | %6
 [A,,,A,,]2 [B,,,B,,]2 | [F,,,F,,]4- | [F,,,F,,]4 | [F,,,F,,]4- | [F,,,F,,]4 | [F,,,F,,]4 | %12
 ([F,,F,]2 [E,,E,][D,,D,] | [C,,C,]>[D,,D,] [E,,E,]2) | ([D,,D,]2 [C,,C,]>[B,,,B,,] | %15
 [A,,,A,,]>[B,,,B,,]) [C,,C,]2- | [C,,C,]4 | ([B,,,B,,]2 [G,,,G,,]2) |: [F,,,F,,]4- | [F,,,F,,]4- | %20
 [F,,,F,,]2 [G,,,G,,]2 | [A,,,A,,]4- | [A,,,A,,]4- | [A,,,A,,]4- | [A,,,A,,]2 [B,,,B,,]2 | %25
 [F,,,F,,]4- | [F,,,F,,]4 | [F,,,F,,]4- | [F,,,F,,]4 | [F,,,F,,]4 | ([F,,F,]2 [E,,E,][D,,D,] | %31
 [C,,C,]>[D,,D,] [E,,E,]2) | ([D,,D,]2 [C,,C,][B,,,B,,] | [A,,,A,,]>[B,,,B,,]) [C,,C,]2- | %34
 [C,,C,]4 |1 ([B,,,B,,]2 [G,,,G,,]2) :|2 ([B,,,B,,]2 [G,,,G,,]2 | [F,,,F,,]4) |] %38
V:5
 x4 | x4 | x4 | x4 | x4 | x4 | x4 | x4 | F4 | F4 | F4 | F4 | x4 | x4 | x4 | x4 | x4 | x4 |: x4 | %19
 x4 | x4 | x4 | x4 | x4 | x4 | x4 | F4 | F4 | F4 | F4 | x4 | x4 | x4 | x4 | x4 |1 x4 :|2 x4 | x4 |] %38

